X: 3261
T: The KISSING RING
%R: jig
B: James Kerr "Merry Melodies" v.3 p.29 #261
Z: 2016 John Chambers <jc:trillian.mit.edu>
M: 6/8
L: 1/8
K: G
|:\
G2G G2B | d2d g2e | d2B BAG | A2F D3 |\
G2G G2B | d2d g2e | d2B B2G | AGF G3 :|
|:\
A2A d2d | e2e f2f | g2g f2f | ede d3 |\
ABA d2d | e2e f2f | a2g f2f | ede d3 :|

%%sep 1 1 500
%%sep 1 1 500

